fs/comment_checkmark_12_regular.svg

<svg viewBox="0 0 12 12" fill="none" xmlns="http://www.w3.org/2000/svg" height="1em" width="1em">
  <path d="M12 3.5C12 1.567 10.433 0 8.5 0C6.567 0 5 1.567 5 3.5C5 5.433 6.567 7 8.5 7C10.433 7 12 5.433 12 3.5ZM10.3536 2.14645C10.5488 2.34171 10.5488 2.65829 10.3536 2.85355L8.35355 4.85355C8.15829 5.04882 7.84171 5.04882 7.64645 4.85355L6.64645 3.85355C6.45118 3.65829 6.45118 3.34171 6.64645 3.14645C6.84171 2.95118 7.15829 2.95118 7.35355 3.14645L8 3.79289L9.64645 2.14645C9.84171 1.95118 10.1583 1.95118 10.3536 2.14645ZM3 2H4.25606C4.3819 1.64397 4.55127 1.30851 4.75777 1H3C1.89543 1 1 1.89543 1 3V7C1 8.10457 1.89543 9 3 9L3 10.5C3 10.6844 3.10149 10.8538 3.26407 10.9408C3.42665 11.0278 3.62392 11.0183 3.77735 10.916L6.65139 9H9C10.019 9 10.8599 8.23801 10.9842 7.25277C10.5187 7.56149 9.99254 7.78594 9.42736 7.90434C9.29778 7.96569 9.15289 8 9 8H6.5C6.40129 8 6.30478 8.02922 6.22265 8.08397L4 9.56574V8.5C4 8.22386 3.77614 8 3.5 8H3C2.44772 8 2 7.55228 2 7V3C2 2.44772 2.44772 2 3 2Z" fill="#212121"/>
</svg>

<svg viewBox="0 0 12 12" fill="none" xmlns="http://www.w3.org/2000/svg" height="1em" width="1em">
  <path d="M12 3.5a3.5 3.5 0 1 0-7 0 3.5 3.5 0 0 0 7 0Zm-1.646-1.354a.5.5 0 0 1 0 .708l-2 2a.5.5 0 0 1-.708 0l-1-1a.5.5 0 1 1 .708-.708L8 3.793l1.646-1.647a.5.5 0 0 1 .708 0ZM3 2h1.256c.126-.356.295-.691.502-1H3a2 2 0 0 0-2 2v4a2 2 0 0 0 2 2v1.5a.5.5 0 0 0 .777.416L6.651 9H9a2 2 0 0 0 1.984-1.747 4.475 4.475 0 0 1-1.557.651A.996.996 0 0 1 9 8H6.5a.5.5 0 0 0-.277.084L4 9.566V8.5a.5.5 0 0 0-.5-.5H3a1 1 0 0 1-1-1V3a1 1 0 0 1 1-1Z" fill="#212121"/>
</svg>
